!!!SOCIAL_FUNCTION:	songs of war
!!!PDT:	1913
!!!OTL: No_53_Little_Girls'_War_Song.krn
!!!REG: Great_Lakes
!!!LANG: Non-Tone
!!!LING_GROUP: Algonquin
**kern
*staff1
=1-
*clefF4
*k[b-]
*M3/4
8F\L
8f\J
8f\L
8c\J
4f\
=2||
*M2/4
8c\L
[8B-\J
8B-\L]
8c\J
=3
8B-\L
8G\J
8F\L
8F\J
=4
2F\
=5||
*M3/4
8F\L
8f\J
8f\L
8c\J
4f\
=6||
*M2/4
8c\L
[8B-\J
8B-\L]
8c\J
=7
8B-\L
8G\J
8F\L
8F\J
=8
2F\
=9
8B-\L
8B-\J
4F\
=10||
*M3/4
8G\L
16.F\L
32F\JJk
4F\
4F\
=11||
*M2/4
8F\L
8F\J
4F\
==
*-
